X:46
T:Portsmouth Winder
M:2/4
L:1/8
S:Ray Hilt (Rounder Heritage 1166-11592-2)
Z:AK/Fiddler's Companion
K:D
[df].d [df].d | [d/f/]d/B/A/ FA | Ae [Ae]f | ge c/B/A |\
[df].d [df].d | [d/f/]d/B/A/ FA | [A,E][A,/E/][A,/E/] CE | D>E D2 :|
|: AF AF | A/A/d/B/ AF | .A,.E .C.E | A>B AF/G/ |\
AF AF | A/A/d/B/ AF | .A,.E .C.E | D4 :|
